X: 39
T:Carpenter's maggot
T:John Malchair's Third Collection of Tunes
%%VWML:Malchair-3619-p40
F:https://www.vwml.org/record/Malchair/3619/p40
F:www.vwml.org/topics/historic-dance-and-tune-books/Malchair
Z:Eric Conran Jan 2020
M:6/4
L:1/4
K:D
D>ED FAA|d3f3|e>fe eBd|c3A2a|
b>ag (f/g/)ac|dBe c2A|B/c/dB c/d/eA|B/c/dB c/d/eA|
a3 f>gf| gcd eBc|d3D3||
fdd g>ab|a(b/a/) (g/f/) g2a|ged BB/c/d|cac Bag|a3A3|
fdd caa|ecc Bgg|dBB Aff|
Gee Fdd|Edc d2F|G>AB AG/F/E/D/|C/D/EA,a3|
f>gf eBc|d3D3||
W:
T:Enfield Common
T:John Malchair's Third Collection of Tunes
%%VWML:Malchair-3619-p40
F:https://www.vwml.org/record/Malchair/3619/p40
F:www.vwml.org/topics/historic-dance-and-tune-books/Malchair
M:6/4
L:1/4
K:Dmin
fge fd2|abg af2|age fde|Ad^c dD2||
efd ge2|cec fc2|AcA dBG|gce fF2|
fAc ^Bd2|g^Bd ^ce2|aeg fde|Ad^c dD2||



I:abc-charset utf-8
